!!!OTL: Die schönste Sch&auml;ferin (239), S. 514f
!!!id: T0427
**kern
*clefG2
*k[b-e-]
*B-:
{4f
=1
4.b-
8f
8d
8f
8b-
8a
=2
8a
8g
4g}
4r
=3
{8cc
8dd
=4
4.ee-
8cc
8a
8f
8dd
8cc
=5
4b-}
2r
=6
{4f
=7
4.b-
8f
8d
8f
8b-
8a
=8
8a
8g
4g}
4r
=9
{8cc
8dd
=10
4.ee-
8cc
8a
8f
8dd
8cc
=11
4b-}
2r
=12
{4dd
=13
4.cc
8dd
8cc
8dd
8cc
8b-
=14
8a
8cc
4ff}
4r
=15
{8cc
8ff
=16
4.ee
8dd
8cc
8b-
8a
8g
=17
4f
4ee-
4dd}
=18
{4cc
=19
4.b-
8f
8d
8f
8b-
8a
=20
8a
8g
4g}
4r
=21
{8cc
8dd
=22
4.ee-
8cc
8a
8f
8dd
8cc
=23
4b-}
2r
==
*-
!!!minrhy: 8
!!!meters: 4/4 ]  ZZ[8
!!!cut: Die schönste Sch&auml;ferin (239), S. 514f
!!!reg: Luxemburg
!!!trd: Singendes Volk, Esch-Alzette, 1937 posth.
!!!rhy1: X_  X_.XXXXX  XXX_0_
!!!rhy2: XX  X_.XXXXX  X_0__
!!!key: T0427  08 Bb 4/4 ]  ZZ[8
!!!mod: ACHTTONSKALA DUR ?]  AMBITUS[10b
!!!kad: -61-6153-61
!!!akz: 1-3-7_4-71_1-3-7_4-71_22-7_4#2-53_1-3-7_4-71_
!!!fot: 'a__b__a__b__c__d__av_b__
!!!for: 'a__aw_a__aw_a__aw_a__aw_
!!!fok: 'Ma_^d_Ma_^d_Va_~a_Sd_^d_
!! PHRAS[AUFTAKTIG]
!!!fkt: Liebeslied
!!!bem: StraPen, fff Witry, 10.1.1933
!! THILL; Mathias
!! PR[37] 2K[2] 2G[17] 3K[7] 3G[0] 4A[5] 4Ü[0] 5A[0] 6K[0] 6G[0]
!! 7K[0] 7G[0] 8A[0] MEHR[0] SI[32] ABS[41] SR[20] SP[12]
!! ST[12] 2k[7] 2g[20] 3k[5] 3g[0] 4d[0] 4ü[0] 5d[0] 6k[0] 6g[0]
!! 7k[0] 7g[0] 8d[0] mehr[0] si[32] dm[0] sr[27] sp[5]
!! 1F[9] 2F[74] 3F[16] 4F[0] LF[0] 2P[0] 3P[0] 4P[0] TRI[0] DF[3] AB[43]
!! TF[0] U3K[0] U3[0] U4[0] U4Ü[0] U5[2] U6K[0] U6[0] U7K[0] U7[0]
!! N1[12] N2K[0] N2[19] N3K[0] N3[33] N4[12] N4Ü[0] N5[19] N6K[0] N6[2]
!!!n7k: 0] N7[0] O1[0] O2K[0] O2[0] O3K[0] O3[0] HÖ[0
!!!RNB: symbol: &auml;      = a umlaut  (UTF-8: Å„)
